dist/icons/services/crisis-management.svg

<svg width="51" height="81" viewBox="0 0 51 81" fill="none" xmlns="http://www.w3.org/2000/svg">
<path d="M47.8219 75.5268H2.99105C2.39656 75.5268 1.82641 75.7629 1.40604 76.1833C0.985674 76.6037 0.749512 77.1738 0.749512 77.7683C0.749512 78.3628 0.985674 78.9329 1.40604 79.3533C1.82641 79.7737 2.39656 80.0098 2.99105 80.0098H47.8219C48.4163 80.0098 48.9865 79.7737 49.4069 79.3533C49.8272 78.9329 50.0634 78.3628 50.0634 77.7683C50.0634 77.1738 49.8272 76.6037 49.4069 76.1833C48.9865 75.7629 48.4163 75.5268 47.8219 75.5268ZM25.4065 20.6763C24.1873 20.6763 22.9955 21.0378 21.9818 21.7151C20.9681 22.3925 20.178 23.3552 19.7114 24.4816C19.2449 25.6079 19.1228 26.8473 19.3607 28.0431C19.5985 29.2388 20.1856 30.3372 21.0477 31.1993C21.9098 32.0614 23.0081 32.6484 24.2039 32.8863C25.3996 33.1241 26.639 33.0021 27.7654 32.5355C28.8918 32.069 29.8545 31.2789 30.5318 30.2652C31.2092 29.2515 31.5707 28.0597 31.5707 26.8405C31.5707 25.2056 30.9212 23.6377 29.7652 22.4817C28.6092 21.3257 27.0413 20.6763 25.4065 20.6763ZM25.4065 29.3959C24.7671 29.3361 24.1732 29.0398 23.7408 28.5651C23.3084 28.0904 23.0688 27.4714 23.0688 26.8293C23.0688 26.1872 23.3084 25.5682 23.7408 25.0935C24.1732 24.6188 24.7671 24.3225 25.4065 24.2627C25.7637 24.2293 26.1239 24.2708 26.4641 24.3846C26.8044 24.4984 27.1171 24.682 27.3824 24.9235C27.6476 25.1651 27.8595 25.4594 28.0045 25.7876C28.1495 26.1157 28.2243 26.4705 28.2243 26.8293C28.2243 27.1881 28.1495 27.5429 28.0045 27.871C27.8595 28.1992 27.6476 28.4935 27.3824 28.7351C27.1171 28.9766 26.8044 29.1602 26.4641 29.274C26.1239 29.3878 25.7637 29.4293 25.4065 29.3959Z" fill="#C3B18D"/>
<path d="M49.503 49.6366C48.2326 45.1224 46.0593 40.913 43.1146 37.2633L42.4869 36.4788C42.4869 35.7166 42.4869 34.9545 42.3749 34.2372C40.8506 9.08714 27.1772 0.658955 26.6168 0.300309C26.2761 0.103573 25.8895 0 25.4961 0C25.1026 0 24.7161 0.103573 24.3753 0.300309C23.7925 0.658955 10.1415 9.08714 8.68452 34.1475C8.68452 34.8648 8.68452 35.6046 8.57244 36.3891L7.83273 37.3081C2.13171 44.3223 -0.631789 53.2715 0.121832 62.2789C0.172331 62.8377 0.430606 63.3573 0.84563 63.735C1.26065 64.1127 1.80224 64.3209 2.36337 64.3187H12.2934C12.8848 66.2452 13.6346 68.1195 14.5349 69.9225C14.7296 70.2688 15.0127 70.5571 15.3553 70.7579C15.698 70.9588 16.0879 71.065 16.4851 71.0657H34.3726C34.7698 71.065 35.1596 70.9588 35.5023 70.7579C35.845 70.5571 36.1281 70.2688 36.3227 69.9225C37.226 68.1209 37.9759 66.2463 38.5643 64.3187H48.4046C48.9657 64.3209 49.5073 64.1127 49.9224 63.735C50.3374 63.3573 50.5957 62.8377 50.6461 62.2789C51.0421 58.0303 50.6546 53.7452 49.503 49.6366ZM32.9604 66.5602H17.9645C16.3592 62.7917 15.1643 58.8613 14.4004 54.837L9.91736 55.7336C10.2312 57.1906 10.545 58.5355 10.8812 59.8132H4.47042C4.32695 54.3091 5.72443 48.8745 8.50519 44.1224C8.50519 45.3552 8.6621 46.5881 8.79659 47.8434L13.2797 47.3726C12.8298 43.0763 12.7473 38.7493 13.0331 34.4389C14.1987 15.7893 22.3803 7.47323 25.4064 4.98513C28.4997 7.49565 36.7262 15.7893 37.8694 34.4614C38.6413 45.3929 36.9642 56.359 32.9604 66.5602ZM39.954 59.8356C41.2575 54.7389 42.0755 49.5302 42.3973 44.2793C45.1236 49.0009 46.4891 54.3853 46.3424 59.8356H39.954Z" fill="#C3B18D"/>
</svg>

<svg width="51" height="81" fill="none" xmlns="http://www.w3.org/2000/svg">
    <path d="M47.822 75.527H2.99a2.241 2.241 0 1 0 0 4.483h44.83a2.242 2.242 0 1 0 0-4.483Zm-22.416-54.85a6.164 6.164 0 1 0 0 12.328 6.164 6.164 0 0 0 0-12.329Zm0 8.719a2.578 2.578 0 1 1 .48-5.133 2.578 2.578 0 0 1-.48 5.133Z" fill="#C3B18D"/>
    <path d="M49.503 49.637a34.656 34.656 0 0 0-6.388-12.374l-.628-.784c0-.762 0-1.524-.112-2.242C40.85 9.087 27.177.66 26.617.3a2.241 2.241 0 0 0-2.242 0c-.582.359-14.233 8.787-15.69 33.848 0 .717 0 1.457-.113 2.241l-.74.92a34.968 34.968 0 0 0-7.71 24.97 2.242 2.242 0 0 0 2.241 2.04h9.93a36.562 36.562 0 0 0 2.242 5.603 2.242 2.242 0 0 0 1.95 1.144h17.888a2.241 2.241 0 0 0 1.95-1.144 35.864 35.864 0 0 0 2.241-5.603h9.84a2.242 2.242 0 0 0 2.242-2.04 34.857 34.857 0 0 0-1.143-12.642ZM32.96 66.56H17.965A57.072 57.072 0 0 1 14.4 54.837l-4.483.897a92.92 92.92 0 0 0 .964 4.08h-6.41a29.543 29.543 0 0 1 4.034-15.692c0 1.233.157 2.466.292 3.721l4.483-.47a75.944 75.944 0 0 1-.247-12.934C14.2 15.789 22.38 7.473 25.406 4.985 28.5 7.495 36.726 15.79 37.87 34.461a73.657 73.657 0 0 1-4.909 32.1Zm6.994-6.724a83.363 83.363 0 0 0 2.443-15.557 29.522 29.522 0 0 1 3.945 15.557h-6.388Z" fill="#C3B18D"/>
</svg>
